build/svg/cmd/sc_dsbinsertcontent.svg

<svg xmlns="http://www.w3.org/2000/svg" viewBox="0 0 16 16"><path d="M8 2.5c-3.038 0-5.5.82-5.5 1.833v7.334C2.5 12.679 4.962 13.5 8 13.5s5.5-.82 5.5-1.833V4.333C13.5 3.321 11.038 2.5 8 2.5z" fill="#f2cbf8"/><path d="M8 2a6 2 0 00-6 2v8a6 2 0 006 2 6 2 0 006-2V4a6 2 0 00-6-2zm0 1a5 1 0 015 1 5 1 0 01-5 1 5 1 0 01-5-1 5 1 0 015-1zM3 5.102A6 2 0 008 6a6 2 0 005-.896V8a5 1 0 01-5 1 5 1 0 01-5-1zm0 4A6 2 0 008 10a6 2 0 005-.896V12a5 1 0 01-5 1 5 1 0 01-5-1z" fill="#8e03a3"/><path d="M9 11v2h4v-2z" fill="#762572"/><path d="M7 9v6h3v-1H8v-4h2V9zm5 0v1h2v4h-2v1h3V9zm-3 2v2h4v-2z" opacity=".6" stroke="#000" stroke-width="2" stroke-linejoin="round"/><path d="M9 11v2h4v-2z" fill="#d85eca"/><path d="M12 9h3v6h-3v-1h2v-4h-2zM10 9H7v6h3v-1H8v-4h2z" fill="#d85eca"/></svg>

<?xml version="1.0" encoding="UTF-8" standalone="no"?>
<svg
   xmlns:dc="http://purl.org/dc/elements/1.1/"
   xmlns:cc="http://creativecommons.org/ns#"
   xmlns:rdf="http://www.w3.org/1999/02/22-rdf-syntax-ns#"
   xmlns:svg="http://www.w3.org/2000/svg"
   xmlns="http://www.w3.org/2000/svg"
   xmlns:sodipodi="http://sodipodi.sourceforge.net/DTD/sodipodi-0.dtd"
   xmlns:inkscape="http://www.inkscape.org/namespaces/inkscape"
   viewBox="0 0 16 16"
   version="1.1"
   id="svg6"
   sodipodi:docname="sc_dsbinsertcontent.svg"
   inkscape:version="0.92.5 (2060ec1f9f, 2020-04-08)"
   inkscape:export-filename="/home/jupiter007/Libreoffice yaru theme fullcolor/build/cmd/sc_dsbinsertcontent.png"
   inkscape:export-xdpi="96"
   inkscape:export-ydpi="96">
  <metadata
     id="metadata12">
    <rdf:RDF>
      <cc:Work
         rdf:about="">
        <dc:format>image/svg+xml</dc:format>
        <dc:type
           rdf:resource="http://purl.org/dc/dcmitype/StillImage" />
      </cc:Work>
    </rdf:RDF>
  </metadata>
  <defs
     id="defs10" />
  <sodipodi:namedview
     pagecolor="#ffffff"
     bordercolor="#666666"
     borderopacity="1"
     objecttolerance="10"
     gridtolerance="10"
     guidetolerance="10"
     inkscape:pageopacity="0"
     inkscape:pageshadow="2"
     inkscape:window-width="1920"
     inkscape:window-height="1011"
     id="namedview8"
     showgrid="true"
     inkscape:zoom="41.7193"
     inkscape:cx="7.3043834"
     inkscape:cy="5.5786448"
     inkscape:window-x="0"
     inkscape:window-y="32"
     inkscape:window-maximized="1"
     inkscape:current-layer="svg6">
    <inkscape:grid
       type="xygrid"
       id="grid844" />
  </sodipodi:namedview>
  <path
     style="fill:#f2cbf8;fill-opacity:1;stroke-width:0.91666681"
     id="path817"
     d="M 8,2.5 C 4.962434,2.5 2.5,3.3208113 2.5,4.3333333 V 11.666666 C 2.5,12.679188 4.962434,13.5 8,13.5 c 3.037565,0 5.5,-0.820812 5.5,-1.833334 V 4.3333333 C 13.5,3.3208113 11.037565,2.5 8,2.5 Z"
     inkscape:connector-curvature="0"
     sodipodi:nodetypes="sssssss" />
  <path
     inkscape:connector-curvature="0"
     d="M 8,2 A 6,2 0 0 0 2,4 v 8 a 6,2 0 0 0 6,2 6,2 0 0 0 6,-2 V 4 A 6,2 0 0 0 8,2 Z M 8,3 A 5,1 0 0 1 13,4 5,1 0 0 1 8,5 5,1 0 0 1 3,4 5,1 0 0 1 8,3 Z M 3,5.1015625 A 6,2 0 0 0 8,6 6,2 0 0 0 13,5.1035156 V 8 A 5,1 0 0 1 8,9 5,1 0 0 1 3,8 Z m 0,4 A 6,2 0 0 0 8,10 6,2 0 0 0 13,9.1035156 V 12 A 5,1 0 0 1 8,13 5,1 0 0 1 3,12 Z"
     id="path2"
     style="fill:#8e03a3;fill-opacity:1" />
  <path
     inkscape:connector-curvature="0"
     style="fill:#762572"
     d="m 9,11 v 2 h 4 v -2 z"
     id="path4"
     sodipodi:nodetypes="ccccc" />
  <path
     inkscape:connector-curvature="0"
     style="opacity:0.6;fill:#000000;fill-opacity:1;stroke:#000000;stroke-width:2;stroke-linejoin:round;stroke-miterlimit:4;stroke-dasharray:none"
     d="m 7.0000002,9 v 6 H 10 V 14 H 8.0000002 V 10 H 10 V 9 Z M 12,9 v 1 h 2 v 4 h -2 v 1 h 3 V 9 Z m -3,2 v 2 h 4 v -2 z"
     id="path860"
     sodipodi:nodetypes="ccccccccccccccccccccccc" />
  <path
     d="m 9,11 v 2 h 4 v -2 z"
     id="path4-3"
     inkscape:connector-curvature="0"
     style="fill:#d85eca;fill-opacity:1"
     sodipodi:nodetypes="ccccc" />
  <path
     style="fill:#d85eca;fill-opacity:1;stroke:none;stroke-width:1px;stroke-linecap:butt;stroke-linejoin:miter;stroke-opacity:1"
     d="m 12,9 h 3 v 6 h -3 v -1 h 2 v -4 h -2 z"
     id="path850"
     inkscape:connector-curvature="0"
     sodipodi:nodetypes="ccccccccc" />
  <path
     inkscape:connector-curvature="0"
     id="path858"
     d="M 10,9 H 7.0000002 v 6 H 10 V 14 H 8.0000002 V 10 H 10 Z"
     style="fill:#d85eca;fill-opacity:1;stroke:none;stroke-width:1px;stroke-linecap:butt;stroke-linejoin:miter;stroke-opacity:1"
     sodipodi:nodetypes="ccccccccc" />
</svg>
